X:261
T:Sonny's Return
R:reel
M:4/4
L:1/8
K:Amin
|eAAB cBAG|EGG2 AGEG|cAAB cBAG|Eccd eaag|
eAAB cBAG|EGG2 AGEG|c/2c/2deg agec|1AcBG A4:|2AcBG A3B||
|:c2ec gcec|c2eg aged|c2ec gcec|d2ed cAAB|
c2ec gcec|c2eg agea|ac'ba gedc|EAAG A4:|

